build/system/SharingSolid.svg

<svg xmlns="http://www.w3.org/2000/svg" fill="none" viewBox="0 0 24 24" focusable="false"><path d="M0 0H24V24H0z"/><path fill="#74767B" fill-rule="evenodd" d="M3 12C3 7.02944 7.02944 3 12 3C16.9706 3 21 7.02944 21 12C21 16.9706 16.9706 21 12 21C7.02944 21 3 16.9706 3 12ZM12.6838 13.3625C12.6838 13.7215 12.3927 14.0125 12.0338 14.0125C11.6748 14.0125 11.3838 13.7215 11.3838 13.3625L11.3838 8.22821L9.42004 10.3234C9.18004 10.5834 8.77004 10.6034 8.50004 10.3634C8.36004 10.2334 8.29004 10.0634 8.29004 9.8834C8.29004 9.7234 8.34004 9.5734 8.46004 9.4434L11.5137 6.23339C11.7937 5.92339 12.2737 5.92339 12.5537 6.23339L15.54 9.4434C15.78 9.7134 15.76 10.1234 15.5 10.3634C15.23 10.6034 14.82 10.5934 14.58 10.3234L12.6838 8.27613L12.6838 13.3625ZM7.32188 13.667C7.32188 13.308 7.03086 13.017 6.67188 13.017C6.31289 13.017 6.02187 13.308 6.02187 13.667C6.02187 15.6823 7.6556 17.316 9.6709 17.316L14.3291 17.316C16.3444 17.316 17.9781 15.6823 17.9781 13.667C17.9781 13.308 17.6871 13.017 17.3281 13.017C16.9691 13.017 16.6781 13.308 16.6781 13.667C16.6781 14.9643 15.6264 16.016 14.3291 16.016L9.6709 16.016C8.37357 16.016 7.32188 14.9643 7.32188 13.667Z"/></svg>

<svg xmlns="http://www.w3.org/2000/svg" fill="none" viewBox="0 0 24 24" focusable="false"><path fill="#74767B" fill-rule="evenodd" d="M3 12c0-4.98 4.02-9 9-9 4.97 0 9 4.02 9 9a9 9 0 0 1-9 9c-4.98 0-9-4.03-9-9m9.68 1.36c0 .36-.29.65-.65.65s-.65-.29-.65-.65V8.22l-1.97 2.1c-.23.26-.64.28-.91.04a.61.61 0 0 1-.21-.48c0-.16.04-.31.16-.44l3.06-3.21c.28-.31.76-.31 1.04 0l2.99 3.21c.24.27.22.68-.04.92-.27.24-.69.23-.92-.04l-1.9-2.05zm-5.36.3c0-.36-.29-.65-.65-.65s-.65.29-.65.65c0 2.02 1.63 3.65 3.65 3.65h4.65c2.02 0 3.65-1.63 3.65-3.65 0-.36-.29-.65-.65-.65s-.65.29-.65.65c0 1.3-1.05 2.35-2.35 2.35H9.67c-1.3 0-2.35-1.05-2.35-2.35"/></svg>
